public/style/workarea/images/icons/exe-interactive-icon-green.svg

<svg fill="none" height="19" viewBox="0 0 19 19" width="19" xmlns="http://www.w3.org/2000/svg"><path d="m14.3679 9.84898 1.2852.94952m-.5508-3.89453 1.4772-.22185m-3.0442-2.37754.8239-1.11516m-7.48006 1.12644 1.11173.8214m2.37753-3.04424.2218 1.47717m-7.36803 7.48711 8.38043-4.13694-1.4928 9.22594-2.38596-3.9763z" stroke="#0ba0a0" stroke-linecap="round" stroke-linejoin="round" stroke-width="1.5"/></svg>

<svg width="19" height="19" viewBox="0 0 19 19" fill="none" xmlns="http://www.w3.org/2000/svg">
<path d="M14.3679 9.84898L15.6531 10.7985M15.1023 6.90397L16.5795 6.68212M13.5353 4.30458L14.3592 3.18942M6.87914 4.31586L7.99087 5.13726M10.3684 2.09302L10.5902 3.57019M3.22217 11.0573L11.6026 6.92036L10.1098 16.1463L7.72384 12.17L3.22217 11.0573Z" stroke="#0BA0A0" stroke-width="1.5" stroke-linecap="round" stroke-linejoin="round"/>
</svg>
